X:37
T: Schoen Adelheid
N: Q0074
O: Mitteleuropa, Deutschland (BRD) , Rheinland, Muelheim Rh., Paffrath
N: Verzierungen (Vorschlaege)
R: Ballade, Entfuehrung, Adelige als Dienstmagd, Wiederfinden
M: 3/8
L: 1/16
K: A
E2 | E4A2 | A2G2A2 | B4=cB | A4
Bd | =c2B2A2 | G2=F2E2 | A3B=c2 | B4
B2 | B2A2B=c | d2=c2B2 | =c2B2A2 | A2G2
=F2 | E2=F2G2 | A2B2=c2 | B2A2

@@@ Tune index: 1092
